!!!COM:	Busnoys, Antoine
!!!CDT:	~1430///-1492/11/06
!!!OTL:	En voyant sa dame
!!!AGN:	Song; Chanson
!!!SCT:	Bus3019
!!!SCA:	Bus3019
!!!voices:	3
**kern	**kern	**kern
*staff3	*staff2	*staff1
*Ivox	*Ivox	*Ivox
*I"Contra	*I"Tenor	*I"Superius
*I'C	*I'T	*I'S
*clefF4	*clefGv2	*clefG2
*k[b-]	*k[b-]	*k[b-]
*M2/1	*M2/1	*M2/1
*met(C|)	*met(C|)	*met(C|)
=1-	=1-	=1-
!!LO:TX:Z=12:t=Rondeau
1FF	1.F	0r
1BB-	.	.
.	2G	.
=2	=2	=2
2.AA	1A	2.c
4BB-	.	4d
2C	1A	2e
[2D	.	[2f
=3	=3	=3
2D]	1B-	2f]
4C	.	4e
4BB-	.	4d
2.AA	[1c	[1e
4BB-	.	.
=4	=4	=4
2C	2c]	2e]
2D	2A	2f
2GG	2B-	2g
[2D	4A	[2a
.	4G	.
=5	=5	=5
4D]	2F	4a]
4E	.	4f
2F	2A	1f
1C	1G	.
.	.	2e
=6	=6	=6
1FF	2F	2f
.	2.c	2a
1r	.	2g
.	4B-	.
.	[2d	2b-
=7	=7	=7
1FF	4d]	2a
.	4c	.
.	4B-	4g
.	4A	4f
1C	1G	2.e
.	.	4d
=8	=8	=8
2D	1F	2f
4C	.	4e
4BB-	.	4d
2AA	1r	2c
[2BB-	.	[2d
=9	=9	=9
2BB-]	1B-	2d]
4AA	.	4c
4GG	.	4B-
2FF	2.c	1A
[2C	.	.
.	4d	.
=10	=10	=10
2C]	2e	1r
2.D	2.f	.
.	.	1a
4E	4e	.
2F	2c	.
=11	=11	=11
1BB-	2d	1b-
.	4c	.
.	4B-	.
1F	1A	2cc
.	.	[2a
=12	=12	=12
1G	1B-	2a]
.	.	2g
1D	2A	1a
.	2F	.
=13	=13	=13
1r	1G	1b-
1D	2A	2a
.	[2B-	2f
=14	=14	=14
1E	2B-]	1g
.	2c	.
[1F	2A	[1a
.	2d	.
=15	=15	=15
2F]	2c	2a]
2D	1f	2f
1C	.	1g
.	2e	.
=16	=16	=16
2D	2.f	2f
2F	.	2a
.	4e	.
2G	2d	2b-
[2A	[2c	[2cc
=17	=17	=17
4A]	4c]	2cc]
4G	4B-	.
2E	2G	2b-
2F	2A	2a
4E	2B-	4g
4D	.	4f
=18	=18	=18
1CNy	[0cNy	0eNy
2r	.	.
[2C	.	.
=19	=19	=19
4C]	0c]	1r
4D	.	.
1E	.	.
.	.	1e
2C	.	.
=20	=20	=20
1D	0r	1f
[1C	.	2g
.	.	[2e
=21	=21	=21
1C]	1e	2e]
.	.	2c
1r	1f	1d
=22	=22	=22
1C	2g	2.e
.	1e	.
.	.	4d
1AA	.	2c
.	2c	2A
=23	=23	=23
1GG	1d	1Bni
2.C	2.e	2c
.	.	[2g
4D	4d	.
=24	=24	=24
2E	2c	2g]
2F	2A	4f
.	.	4e
1G	1Bni	1d
=25	=25	=25
0C	2c	2c
.	2.g	2.e
.	4f	4f
.	2e	2g
=26	=26	=26
0F	2d	2f
.	2.c	2.a
.	4B-	4b-
.	2A	2cc
=27	=27	=27
1.G	2G	2.b-
.	2.d	.
.	.	4a
.	.	2b-
.	4e	.
2D	[2f	[2a
=28	=28	=28
2F	2f]	2a]
2G	2B-	1g
2.D	1A	.
.	.	2f#i
8CL	.	.
8DJ	.	.
=29	=29	=29
2E-i	1G	2g
4D	.	2e
4C	.	.
2BB-	2r	1d
2GG	[2d	.
=30	=30	=30
2BB-	2d]	1r
2AA	2c	.
1BB-	2d	2r
.	[2B-	[2dd
=31	=31	=31
1C	2B-]	2dd]
.	2A	2cc
2r	2B-	2dd
2BB-	2d	[2b-
=32	=32	=32
2E-i	1c	2b-]
2F	.	2a
2.G	1B-	2b-
.	.	4a
4F	.	4g
=33	=33	=33
2D	2A	2f
2.E-i	2.G	2.g
4F	4A	4f
2G	2B-	2d
=34	=34	=34
1C	4c	4e
.	4B-	4d
.	4A	4c
.	4G	4B-
2r	2F	2.A
[2G	[2c	.
.	.	4G
=35	=35	=35
4G]	2c]	2A
4E	.	.
2D	2d	2B-
2C	2e	2c
[2BB-	[2f	[2d
=36	=36	=36
4BB-]	4f]	4d]
4C	4e	4e
2D	2d	2f
2E	2.c	2g
[2F	.	[2a
.	4B-	.
=37	=37	=37
4F]	2c	4a]
4E	.	4g
2F	2A	2.f
1C	1G	.
.	.	4e
.	.	4e
.	.	4d
=38	=38	=38
0FFl	0Fl	0fl
==	==	==
*-	*-	*-
!!!RDF**kern: l=long note in original notation
!!!RDF**kern: i=editorial accidental
!!!RDF**kern: N=signum congruentiae
!!!ENC:	Chris Gage 04-13-2015
!!!END:	2015/05/03/
!!!EED:	Jesse Rodin
!!!EEV:	2015/05/10/
!!!ONB:	Translated from MusicXML and edited on 2015/05/10/ by Craig Sapp
!!muse2ps: C^@{COM}^i2I150v95,95,150Q16c75
